packages/web-icons/svgs/star_empty.svg

<svg viewBox="0 0 52 48" xmlns="http://www.w3.org/2000/svg" class="ridi_icon"><path d="M39.5 30.9L41.6 48 26 40.7 10.4 48l2.1-17.1L.8 18.3l16.9-3.2L26 0l8.3 15.1 16.9 3.3-11.7 12.5zm-7.8-13L26 7.7l-5.6 10.2-11.5 2.2 8 8.5-1.5 11.7 10.6-5 10.6 5-1.5-11.6 8-8.5-11.4-2.3z"/></svg>

<?xml version="1.0" encoding="UTF-8"?>
<svg width="52px" height="48px" viewBox="0 0 52 48" version="1.1" xmlns="http://www.w3.org/2000/svg">
  <!-- Generator: Sketch 41.2 (35397) - http://www.bohemiancoding.com/sketch -->
  <title>star_empty</title>
  <desc>Created with Sketch.</desc>
  <defs></defs>
  <g id="Page-1" stroke="none" stroke-width="1" fill="none" fill-rule="evenodd">
    <g id="star_empty" fill="#000000">
      <g id="레이어_1">
        <path d="M39.5,30.9 L41.6,48 L26,40.7 L10.4,48 L12.5,30.9 L0.8,18.3 L17.7,15.1 L26,0 L34.3,15.1 L51.2,18.4 L39.5,30.9 L39.5,30.9 Z M31.7,17.9 L26,7.7 L20.4,17.9 L8.9,20.1 L16.9,28.6 L15.4,40.3 L26,35.3 L36.6,40.3 L35.1,28.7 L43.1,20.2 L31.7,17.9 L31.7,17.9 Z" id="Shape"></path>
      </g>
    </g>
  </g>
</svg>
